!! 00000] TT[WS
!!!OTL: Da xiuqian
!!!ARE: Asia, China, Shanxi Zuoquan
!! Ethnic Group: Han
!! WII, 170
!!!SCT: J0656
!!!YEM: Copyright 1995, estate of Helmut Schaffrath.
**kern
*ICvox
*Ivox
*M2/4
*k[f#c#g#]
*A:
{8cc#
8ee
8cc#
8b
=1
8cc#
8ee
8cc#
8b
=2
8cc#
8ee
8cc#
8b
=3
8cc#
4.a}
=4
{8r
8cc#
8cc#
8cc#
=5
8b
8cc#
4a
=6
8b
4a
8f#
=7
2e}
=8
{8a
8f#
4a
=9
8c#
8e
4c#
=10
8a
8f#
4a
=11
8c#
8e
4c#}
=12
{8.b
16a
8b
8b
=13
8r
8cc#
8b
8cc#
=14
4b
4a
=15
8b
8b
8c#
8e
=16
8g#
8f#
4e}
==
!!!AGN: Xiaodiao, Qingge, Sichun
!!!ONB: ESAC (Essen Associative Code) Database: CHINA
!!!AMT: simple duple
!!!AIN: vox
!!!EED: Helmut Schaffrath
!!!EEV: 1.0
*-
